X:2341
T:Grand Spey, The
O:england
R:reel
H:Related to "The Graf Spee", #484, #662, #681
M:C|
K:C
EGcG AGcG|EGcG ED~D2|EGcG AGcG|EGDF ECC2|
EGcG AGcG|EGcG ED~D2|EGAB cdef|gefd ecc2:|
|:~e3c d3c|(3ABc Gc (3ABc Gc|~e3c d3c|(3ABc GE EDD2|
~e3c d3c|(3ABc Gc (3ABc Gc|eaag (3efg ec|(3ABc GF ECC2:|
egge ~c3d|eaag aged|(3efg ed ~c3G|(3ABc GE EDD2|
egge ~c3d|eaag aged|(3efg ed ~c3G|(3ABc GF ECC2|
egge ~c3d|eaag aged|(3efg ed ~c3d|eaag ed~d2|
egge ~c3d|eaag aged|(3efg ed ~c3G|(3ABc GF ECC2||


